X:1
T: The Flaxdresser
P:Roche version
R:Jig
Q:180
K:G
M:6/8
L:1/16
|:A2|B2A2G2 E2G2D2|E2G2G2 G2E2G2|B2A2G2 E2G2D2|E2A2A2 A2B2c2|
B2A2G2 E2G2D2|E2G2G2 G2E2G2|B2A2G2 E2G2D2|E2G2G2 G4:|
|:B2|B2G2d2 e2f2g2|e2d2B2 B2A2G2|G2B2d2 e2f2g2|d2e2f2 g6|
B2G2d2 e2f2g2|e2d2B2 B2A2G2|B2A2G2 E2G2D2|E2G2G2 G4:|
